X: 34130
T: Reel Du Cultivateur
R: reel
M: 4/4
K: Dmajor
(3ABc|:d3d dAdf|e2 ce Aceg|fedf edce|dcdB AdFA|
d3d dAdf|e2 ce Aceg|fedf edce|1 dcde d2 (3ABc:|2 dcde d2 AG||
|:FdAF dAFA|GdBG dGBd|AecA eAce|dfed cBAG|
FdAF dAFA|GdBG dGBd|AecA eAce|1 dcde d2 AG:|2 dcde d2 (3ABc||

